T: Mad Dan
M: 4/4
L: 1/8
K: Amaj
a3 e fece | ABce fece | A2 eA fAeA | BABc defe |a2 ae fe c/d/e | A/B/A ce fecB | A2 eA fAeA | BABc A3 :|A2 eA fAeA | aece fece | A2 eA fAeA | BABc defe |A/A/A eA fAeA | aece fece | B2 A/B/c Bcde | fece A3 :|
